docs/.gitbook/assets/icon-plus-minus-divide-multiply-16@light.svg

<svg width="32" height="32" viewBox="0 0 16 16" fill="none" xmlns="http://www.w3.org/2000/svg">
<rect x="0" y="0" width="16" height="16" fill="#fff"/>
<path fill-rule="evenodd" clip-rule="evenodd" d="M4 1C4.41421 1 4.75 1.33579 4.75 1.75V3.25H6.25C6.66421 3.25 7 3.58579 7 4C7 4.41421 6.66421 4.75 6.25 4.75H4.75V6.25C4.75 6.66421 4.41421 7 4 7C3.58579 7 3.25 6.66421 3.25 6.25V4.75H1.75C1.33579 4.75 1 4.41421 1 4C1 3.58579 1.33579 3.25 1.75 3.25H3.25V1.75C3.25 1.33579 3.58579 1 4 1ZM9.75 3.25C9.33579 3.25 9 3.58579 9 4C9 4.41421 9.33579 4.75 9.75 4.75H12H14.25C14.6642 4.75 15 4.41421 15 4C15 3.58579 14.6642 3.25 14.25 3.25H12H9.75ZM10.5303 9.46967C10.2374 9.17678 9.76256 9.17678 9.46967 9.46967C9.17678 9.76256 9.17678 10.2374 9.46967 10.5303L10.9393 12L9.46967 13.4697C9.17678 13.7626 9.17678 14.2374 9.46967 14.5303C9.76256 14.8232 10.2374 14.8232 10.5303 14.5303L12 13.0607L13.4697 14.5303C13.7626 14.8232 14.2374 14.8232 14.5303 14.5303C14.8232 14.2374 14.8232 13.7626 14.5303 13.4697L13.0607 12L14.5303 10.5303C14.8232 10.2374 14.8232 9.76256 14.5303 9.46967C14.2374 9.17678 13.7626 9.17678 13.4697 9.46967L12 10.9393L10.5303 9.46967ZM1.75 11.25C1.33579 11.25 1 11.5858 1 12C1 12.4142 1.33579 12.75 1.75 12.75H4H6.25C6.66421 12.75 7 12.4142 7 12C7 11.5858 6.66421 11.25 6.25 11.25H4H1.75ZM4.75 9.75C4.75 10.1642 4.41421 10.5 4 10.5C3.58579 10.5 3.25 10.1642 3.25 9.75C3.25 9.33579 3.58579 9 4 9C4.41421 9 4.75 9.33579 4.75 9.75ZM4 15C4.41421 15 4.75 14.6642 4.75 14.25C4.75 13.8358 4.41421 13.5 4 13.5C3.58579 13.5 3.25 13.8358 3.25 14.25C3.25 14.6642 3.58579 15 4 15Z" fill="#000"/>
</svg>

<svg xmlns="http://www.w3.org/2000/svg" width="32" height="32" fill="none" viewBox="0 0 16 16"><path fill="#fff" d="M0 0h16v16H0z"/><path fill="#000" fill-rule="evenodd" d="M4 1a.75.75 0 0 1 .75.75v1.5h1.5a.75.75 0 0 1 0 1.5h-1.5v1.5a.75.75 0 0 1-1.5 0v-1.5h-1.5a.75.75 0 0 1 0-1.5h1.5v-1.5A.75.75 0 0 1 4 1m5.75 2.25a.75.75 0 0 0 0 1.5h4.5a.75.75 0 0 0 0-1.5zm.78 6.22a.75.75 0 1 0-1.06 1.06L10.94 12l-1.47 1.47a.75.75 0 1 0 1.06 1.06L12 13.06l1.47 1.47a.75.75 0 1 0 1.06-1.06L13.06 12l1.47-1.47a.75.75 0 1 0-1.06-1.06L12 10.94zm-8.78 1.78a.75.75 0 0 0 0 1.5h4.5a.75.75 0 0 0 0-1.5zm3-1.5a.75.75 0 1 1-1.5 0 .75.75 0 0 1 1.5 0M4 15a.75.75 0 1 0 0-1.5.75.75 0 0 0 0 1.5" clip-rule="evenodd"/></svg>
